X: 43557
T: Youghal Quay
R: reel
M: 4/4
K: Gmajor
|:BdcA G2 DG|GDBA GBdg|fdcA GFDE|FGAB cAA2|
BdcA G2 DG|GDBA GABc|dBcA BGG2|FGAB cAA2:|
|:(3Bcd de dcdc|(3Bcd ga bggd|Bdde defg|a2 fa gfed|
(3Bcd de dcdc|(3Bcd ga bggd|Bdde defg|a2 fa gfed:|

